X:1
T:Abilene
M:4/4
L:1/4
K:G
 B B B2| B B A2| D/2D/2 G G A| G E D2| A A A E| F/2 F E D/2E/2 F/2|\
 G G G E| G4|

